X:1
T: The Duchess of Atholl's Slipper
T: Version 2
R:Strathspey
Q: 128
K:F
M:4/4
L:1/16
|:F2|C3F A3F c3A F3A|C3F A3F DG3 G3A|C3F A3F c3F Af3|c3B A3G FF3 F2F2|
C3F A3F c3A F3A|C3F A3F DG3 G3A|C3F A3F c3F Af3|c3B A3G FF3 F2f2|
cf3 f4 c3f a3f|g3f a3f dg3 g4|cf3 f4 c3f a3d|g3f a3f cf3 f4|
c3f f4 c3f a3f|g3f a3f dg3 g4|fa3 df3 cf3 Af3|c3B A3G FF3 F2:|
